public/bouton-google-play.svg

<svg width="175" height="54" viewBox="0 0 175 54" fill="none" xmlns="http://www.w3.org/2000/svg">
<rect width="175" height="54.0001" fill="#131313"/>
<path d="M87.7629 29.4617C85.1807 29.4617 83.0736 31.4265 83.0736 34.135C83.0736 36.8435 85.1784 38.806 87.7629 38.806C90.3475 38.806 92.4523 36.8228 92.4523 34.135C92.4523 31.4472 90.3475 29.4617 87.7629 29.4617ZM87.7629 36.9652C86.3467 36.9652 85.1256 35.7968 85.1256 34.135C85.1256 32.4732 86.3467 31.3026 87.7629 31.3026C89.1792 31.3026 90.398 32.4525 90.398 34.135C90.398 35.8175 89.1769 36.9652 87.7629 36.9652ZM77.5326 29.4617C74.9504 29.4617 72.8433 31.4265 72.8433 34.135C72.8433 36.8435 74.9481 38.806 77.5326 38.806C80.1172 38.806 82.222 36.8228 82.222 34.135C82.222 31.4472 80.1149 29.4617 77.5326 29.4617ZM77.5326 36.9652C76.1187 36.9652 74.8976 35.7968 74.8976 34.135C74.8976 32.4732 76.1187 31.3026 77.5326 31.3026C78.9466 31.3026 80.17 32.4525 80.17 34.135C80.17 35.8175 78.9489 36.9652 77.5326 36.9652ZM65.3651 30.8963V32.8772H70.1072C69.9649 33.9927 69.5954 34.8052 69.0284 35.3722C68.3375 36.0631 67.2587 36.8228 65.3651 36.8228C62.4454 36.8228 60.1615 34.4701 60.1615 31.5505C60.1615 28.6308 62.4431 26.2781 65.3651 26.2781C66.9397 26.2781 68.0896 26.8955 68.9389 27.692L70.3368 26.2941C69.1501 25.1625 67.5755 24.2949 65.3651 24.2949C61.3666 24.2949 58.0039 27.552 58.0039 31.5505C58.0039 35.5489 61.3666 38.806 65.3651 38.806C67.5227 38.806 69.1501 38.0968 70.4263 36.77C71.7346 35.4617 72.1432 33.6209 72.1432 32.1335C72.1432 31.6744 72.1088 31.2498 72.0376 30.8963H65.3674H65.3651ZM115.131 32.4342C114.74 31.3898 113.556 29.4617 111.132 29.4617C108.708 29.4617 106.727 31.3554 106.727 34.135C106.727 36.754 108.708 38.806 111.362 38.806C113.503 38.806 114.74 37.4977 115.255 36.7356L113.662 35.6729C113.129 36.451 112.406 36.9652 111.362 36.9652C110.317 36.9652 109.574 36.4877 109.096 35.5512L115.342 32.9667L115.131 32.4365V32.4342ZM108.761 33.9927C108.708 32.1863 110.159 31.2681 111.203 31.2681C112.018 31.2681 112.709 31.6744 112.939 32.2597L108.763 33.995L108.761 33.9927ZM103.681 38.5214H105.734V24.7907H103.681V38.5214ZM100.319 30.5061H100.248C99.7886 29.9575 98.9026 29.4617 97.7886 29.4617C95.4523 29.4617 93.3131 31.5137 93.3131 34.1511C93.3131 36.7884 95.4546 38.8037 97.7886 38.8037C98.9046 38.8037 99.7886 38.3079 100.248 37.741H100.319V38.4135C100.319 40.2016 99.3636 41.1564 97.8236 41.1564C96.5678 41.1564 95.7874 40.2544 95.4707 39.4946L93.6826 40.2383C94.1945 41.4778 95.5579 42.9996 97.8236 42.9996C100.229 42.9996 102.265 41.5834 102.265 38.1335V29.7463H100.319V30.5084V30.5061ZM97.9656 36.9652C96.5495 36.9652 95.3651 35.7808 95.3651 34.1534C95.3651 32.526 96.5495 31.3049 97.9656 31.3049C99.3816 31.3049 100.461 32.5076 100.461 34.1534C100.461 35.7991 99.3636 36.9652 97.9656 36.9652ZM124.746 24.793H119.836V38.5237H121.883V33.3225H124.746C127.018 33.3225 129.249 31.6767 129.249 29.0577C129.249 26.4388 127.016 24.793 124.746 24.793ZM124.799 31.4104H121.883V26.7027H124.799C126.332 26.7027 127.202 27.972 127.202 29.0554C127.202 30.1388 126.332 31.4081 124.799 31.4081M137.464 29.4365C135.981 29.4365 134.444 30.0906 133.808 31.5367L135.628 32.2964C136.016 31.5367 136.741 31.2888 137.501 31.2888C138.561 31.2888 139.638 31.9246 139.656 33.0539V33.1962C139.284 32.985 138.49 32.666 137.519 32.666C135.559 32.666 133.562 33.7425 133.562 35.7578C133.562 37.5964 135.171 38.7785 136.971 38.7785C138.35 38.7785 139.108 38.161 139.585 37.4357H139.656V38.4961H141.635V33.2306C141.635 30.793 139.817 29.4342 137.467 29.4342M137.219 36.9583C136.546 36.9583 135.61 36.6231 135.61 35.7922C135.61 34.7318 136.776 34.3278 137.783 34.3278C138.683 34.3278 139.108 34.5229 139.656 34.7869C139.498 36.0585 138.403 36.9606 137.219 36.9606M148.842 29.7349L146.492 35.6889H146.421L143.983 29.7349H141.775L145.431 38.0554L143.347 42.6828H145.484L151.119 29.7349H148.84H148.842ZM130.383 38.5191H132.433V24.7884H130.383V38.5191Z" fill="white"/>
<path d="M35.6831 26.9065L23.9883 39.3174C23.9883 39.3174 23.9883 39.322 23.9883 39.3243C24.3464 40.6717 25.5767 41.6633 27.0388 41.6633C27.6241 41.6633 28.1704 41.5049 28.641 41.2294L28.6777 41.2065L41.8414 33.6112L35.6808 26.9043L35.6831 26.9065Z" fill="#E43629"/>
<path d="M47.5124 24.7929L47.5009 24.786L41.8176 21.4922L35.416 27.1892L41.8406 33.6116L47.4917 30.3499C48.4833 29.8128 49.1558 28.7684 49.1558 27.5657C49.1558 26.3629 48.4925 25.33 47.5101 24.7929" fill="#F9BD00"/>
<path d="M23.9887 15.7617C23.9176 16.021 23.8809 16.2942 23.8809 16.5742V38.5061C23.8809 38.7884 23.9176 39.0593 23.9887 39.3187L36.0829 27.2246L23.9864 15.7617H23.9887Z" fill="#587DBE"/>
<path d="M35.768 27.5415L41.8208 21.491L28.6731 13.8682C28.1957 13.5813 27.6379 13.416 27.0411 13.416C25.5813 13.416 24.3487 14.4099 23.9883 15.7596C23.9883 15.7596 23.9883 15.7596 23.9883 15.7619L35.7703 27.5415H35.768Z" fill="#30A043"/>
<path d="M58.8223 13.1566H61.0098C61.7167 13.1566 62.3342 13.2989 62.8598 13.5858C63.3854 13.8727 63.7894 14.2744 64.074 14.7955C64.3587 15.3142 64.4987 15.9087 64.4987 16.5767C64.4987 17.2446 64.3564 17.8391 64.074 18.3578C63.7894 18.8766 63.3854 19.2806 62.8598 19.5675C62.3342 19.8544 61.719 19.9967 61.0098 19.9967H58.8223V13.1543V13.1566ZM60.9822 19.0051C61.7603 19.0051 62.364 18.7894 62.7932 18.3601C63.2225 17.9309 63.4382 17.3364 63.4382 16.5789C63.4382 15.8215 63.2225 15.227 62.7932 14.7978C62.364 14.3685 61.7603 14.1528 60.9822 14.1528H59.8736V19.0074H60.9822V19.0051Z" fill="white"/>
<path d="M65.8633 13.1562H66.9145V19.9986H65.8633V13.1562Z" fill="white"/>
<path d="M69.1117 19.6542C68.6595 19.3236 68.345 18.8577 68.166 18.2586L69.1599 17.8569C69.2609 18.238 69.4445 18.5524 69.7039 18.7934C69.9655 19.0367 70.28 19.1561 70.6495 19.1561C70.9938 19.1561 71.2854 19.0666 71.5241 18.8875C71.7628 18.7085 71.8821 18.4629 71.8821 18.1507C71.8821 17.8638 71.7766 17.6274 71.5677 17.4392C71.3565 17.251 70.9938 17.0673 70.4774 16.8906L70.0482 16.7368C69.5822 16.5715 69.1966 16.3397 68.8867 16.0436C68.5769 15.7475 68.4231 15.355 68.4231 14.8638C68.4231 14.5264 68.5149 14.2142 68.6962 13.9273C68.8776 13.6404 69.1323 13.4155 69.4606 13.2479C69.7888 13.0826 70.1606 13 70.5738 13C71.166 13 71.6411 13.1446 71.9969 13.4338C72.3527 13.723 72.596 14.049 72.7222 14.4139L71.7766 14.8156C71.7123 14.5861 71.5792 14.3887 71.3749 14.2234C71.1706 14.0581 70.9066 13.9755 70.5807 13.9755C70.2547 13.9755 70.0046 14.0581 69.7865 14.2234C69.5707 14.3887 69.4629 14.5998 69.4629 14.8546C69.4629 15.091 69.5593 15.2862 69.7544 15.4422C69.9495 15.5983 70.2502 15.7475 70.6564 15.8875L71.0971 16.0413C71.6824 16.2456 72.1346 16.5096 72.4537 16.8355C72.7727 17.1614 72.9311 17.593 72.9311 18.1347C72.9311 18.58 72.8186 18.9541 72.5914 19.2571C72.3642 19.5601 72.0749 19.785 71.7215 19.9319C71.368 20.0788 71.0053 20.1523 70.6358 20.1523C70.0688 20.1523 69.5593 19.987 69.1071 19.6565L69.1117 19.6542Z" fill="white"/>
<path d="M74.3105 13.1562H76.6609C77.0695 13.1562 77.4436 13.2458 77.7833 13.4248C78.123 13.6038 78.3939 13.8517 78.5959 14.1707C78.7956 14.4898 78.8966 14.8502 78.8966 15.2496C78.8966 15.6489 78.7956 16.0116 78.5959 16.3284C78.3939 16.6474 78.1253 16.8953 77.7833 17.0743C77.4413 17.2534 77.0672 17.3429 76.6609 17.3429H75.3618V19.9986H74.3105V13.1562ZM76.6908 16.3467C77.042 16.3467 77.322 16.2365 77.5354 16.0162C77.7489 15.7958 77.8545 15.5411 77.8545 15.2473C77.8545 14.9535 77.7489 14.6987 77.5354 14.4783C77.322 14.258 77.0397 14.1478 76.6908 14.1478H75.3618V16.3444H76.6908V16.3467Z" fill="white"/>
<path d="M81.525 19.6722C80.9833 19.3532 80.5587 18.9217 80.2488 18.3777C79.939 17.8337 79.7852 17.2323 79.7852 16.5758C79.7852 15.9194 79.939 15.3203 80.2488 14.774C80.5587 14.23 80.9833 13.7984 81.525 13.4794C82.0667 13.1603 82.6681 13.002 83.3315 13.002C83.9948 13.002 84.5939 13.1603 85.1333 13.4794C85.6704 13.7984 86.0951 14.23 86.4049 14.774C86.7148 15.318 86.8686 15.9194 86.8686 16.5758C86.8686 17.2323 86.7148 17.8314 86.4049 18.3777C86.0951 18.9217 85.6727 19.3532 85.1333 19.6722C84.5939 19.9913 83.9948 20.1497 83.3315 20.1497C82.6681 20.1497 82.0667 19.9913 81.525 19.6722ZM84.587 18.8276C84.9658 18.6072 85.2664 18.3019 85.4845 17.9094C85.7048 17.5169 85.815 17.0739 85.815 16.5758C85.815 16.0777 85.7048 15.6347 85.4845 15.2422C85.2641 14.8497 84.9658 14.5445 84.587 14.3241C84.2083 14.1038 83.7882 13.9935 83.3315 13.9935C82.8747 13.9935 82.4547 14.1038 82.0759 14.3241C81.6972 14.5445 81.3965 14.8497 81.1785 15.2422C80.9581 15.6347 80.8479 16.0777 80.8479 16.5758C80.8479 17.0739 80.9581 17.5169 81.1785 17.9094C81.3988 18.3019 81.6972 18.6072 82.0759 18.8276C82.4547 19.0479 82.8747 19.1581 83.3315 19.1581C83.7882 19.1581 84.2083 19.0479 84.587 18.8276Z" fill="white"/>
<path d="M88.2227 13.1562H89.4645L92.5609 18.183H92.6182L92.5609 16.8632V13.1562H93.6029V19.9986H92.5127L89.2648 14.7147H89.2074L89.2648 16.0346V20.0009H88.2227V13.1585V13.1562Z" fill="white"/>
<path d="M95.334 13.1562H96.3852V19.9986H95.334V13.1562Z" fill="white"/>
<path d="M98.1035 13.1562H100.666C101.028 13.1562 101.366 13.2366 101.678 13.395C101.99 13.5533 102.238 13.7714 102.419 14.0491C102.601 14.3268 102.693 14.6344 102.693 14.9718C102.693 15.3092 102.608 15.603 102.44 15.8555C102.27 16.108 102.048 16.3008 101.765 16.4339V16.4821C102.121 16.6038 102.406 16.8035 102.617 17.0835C102.826 17.3636 102.931 17.6941 102.931 18.0774C102.931 18.4607 102.835 18.7867 102.64 19.0759C102.445 19.3651 102.185 19.5923 101.857 19.7553C101.529 19.9183 101.171 19.9986 100.783 19.9986H98.1055V13.1562H98.1035ZM100.618 16.0323C100.937 16.0323 101.191 15.9359 101.382 15.7408C101.572 15.5456 101.669 15.323 101.669 15.0682C101.669 14.8134 101.575 14.5931 101.387 14.4049C101.198 14.2166 100.955 14.1225 100.654 14.1225H99.1525V16.0346H100.615L100.618 16.0323ZM100.781 19.0231C101.111 19.0231 101.377 18.9221 101.579 18.7224C101.779 18.5227 101.88 18.2817 101.88 18.0017C101.88 17.7216 101.777 17.4783 101.57 17.2763C101.364 17.072 101.088 16.9711 100.744 16.9711H99.1575V19.0254H100.783L100.781 19.0231Z" fill="white"/>
<path d="M104.316 13.1562H105.367V19.0047H108.309V19.9986H104.316V13.1562Z" fill="white"/>
<path d="M109.418 13.1562H113.566V14.1501H110.469V16.0805H113.26V17.0743H110.469V19.0047H113.566V19.9986H109.418V13.1562Z" fill="white"/>
<path d="M117.569 19.6542C117.117 19.3236 116.802 18.8577 116.623 18.2586L117.617 17.8569C117.718 18.238 117.902 18.5524 118.161 18.7934C118.423 19.0367 118.737 19.1561 119.107 19.1561C119.451 19.1561 119.743 19.0666 119.981 18.8875C120.22 18.7085 120.339 18.4629 120.339 18.1507C120.339 17.8638 120.234 17.6274 120.025 17.4392C119.814 17.251 119.451 17.0673 118.935 16.8906L118.505 16.7368C118.039 16.5715 117.654 16.3397 117.344 16.0436C117.034 15.7475 116.88 15.355 116.88 14.8638C116.88 14.5264 116.972 14.2142 117.153 13.9273C117.335 13.6404 117.59 13.4155 117.918 13.2479C118.246 13.0826 118.618 13 119.031 13C119.623 13 120.098 13.1446 120.454 13.4338C120.81 13.723 121.053 14.049 121.179 14.4139L120.234 14.8156C120.17 14.5861 120.036 14.3887 119.832 14.2234C119.628 14.0581 119.364 13.9755 119.038 13.9755C118.712 13.9755 118.462 14.0581 118.244 14.2234C118.028 14.3887 117.918 14.5998 117.918 14.8546C117.918 15.091 118.014 15.2862 118.209 15.4422C118.404 15.5983 118.705 15.7475 119.111 15.8875L119.55 16.0413C120.135 16.2456 120.587 16.5096 120.906 16.8355C121.225 17.1614 121.384 17.593 121.384 18.1347C121.384 18.58 121.271 18.9541 121.044 19.2571C120.817 19.5601 120.528 19.785 120.174 19.9319C119.821 20.0788 119.458 20.1523 119.088 20.1523C118.521 20.1523 118.012 19.987 117.56 19.6565L117.569 19.6542Z" fill="white"/>
<path d="M123.841 19.8062C123.448 19.5767 123.145 19.253 122.932 18.8307C122.719 18.4106 122.613 17.9217 122.613 17.3685V13.1543H123.655V17.4259C123.655 17.9424 123.788 18.3601 124.057 18.6769C124.325 18.9959 124.704 19.1543 125.193 19.1543C125.682 19.1543 126.072 18.9959 126.341 18.6769C126.609 18.3578 126.742 17.9401 126.742 17.4259V13.1543H127.784V17.3685C127.784 17.9171 127.679 18.4014 127.47 18.8215C127.259 19.2415 126.96 19.5675 126.572 19.8016C126.184 20.0334 125.725 20.1505 125.195 20.1505C124.665 20.1505 124.236 20.0357 123.843 19.8062H123.841Z" fill="white"/>
<path d="M129.418 13.1562H131.817C132.23 13.1562 132.604 13.2458 132.939 13.4248C133.274 13.6038 133.538 13.8517 133.733 14.1707C133.928 14.4898 134.025 14.8502 134.025 15.2496C134.025 15.7086 133.875 16.1149 133.579 16.4684C133.283 16.8219 132.911 17.0583 132.466 17.1799L132.457 17.2281L134.339 19.9412V19.9986H133.125L131.3 17.3131H130.469V19.9986H129.418V13.1562ZM131.787 16.3467C132.117 16.3467 132.397 16.2411 132.622 16.0323C132.847 15.8211 132.962 15.5571 132.962 15.2381C132.962 14.9443 132.859 14.6895 132.652 14.4691C132.445 14.2488 132.17 14.1386 131.826 14.1386H130.469V16.3467H131.789H131.787Z" fill="white"/>
</svg>

<svg xmlns="http://www.w3.org/2000/svg" width="175" height="54" fill="none"><path fill="#131313" d="M0 0h175v54H0z"/><path fill="#fff" d="M87.763 29.462c-2.582 0-4.69 1.965-4.69 4.673s2.105 4.671 4.69 4.671c2.584 0 4.69-1.983 4.69-4.671s-2.106-4.673-4.69-4.673m0 7.503c-1.416 0-2.637-1.168-2.637-2.83s1.22-2.832 2.637-2.832c1.416 0 2.635 1.15 2.635 2.832 0 1.683-1.221 2.83-2.635 2.83m-10.23-7.503c-2.583 0-4.69 1.965-4.69 4.673s2.105 4.671 4.69 4.671c2.584 0 4.689-1.983 4.689-4.671s-2.107-4.673-4.69-4.673m0 7.503c-1.414 0-2.635-1.168-2.635-2.83s1.22-2.832 2.635-2.832 2.637 1.15 2.637 2.832c0 1.683-1.221 2.83-2.637 2.83m-12.168-6.069v1.981h4.742c-.142 1.116-.512 1.928-1.079 2.495-.69.691-1.77 1.45-3.663 1.45-2.92 0-5.203-2.352-5.203-5.272s2.281-5.272 5.203-5.272c1.575 0 2.725.617 3.574 1.414l1.398-1.398c-1.187-1.131-2.761-2-4.972-2-3.998 0-7.361 3.258-7.361 7.256s3.363 7.256 7.361 7.256c2.158 0 3.785-.71 5.061-2.036 1.309-1.308 1.717-3.15 1.717-4.637 0-.459-.034-.883-.105-1.237zm49.766 1.538c-.391-1.044-1.575-2.972-3.999-2.972s-4.405 1.893-4.405 4.673c0 2.619 1.981 4.671 4.635 4.671 2.141 0 3.378-1.308 3.893-2.07l-1.593-1.063c-.533.778-1.256 1.292-2.3 1.292-1.045 0-1.788-.477-2.266-1.414l6.246-2.584-.211-.53zm-6.37 1.559c-.053-1.807 1.398-2.725 2.442-2.725.815 0 1.506.406 1.736.992l-4.176 1.735zm-5.08 4.528h2.053v-13.73h-2.053zm-3.362-8.015h-.071c-.46-.549-1.345-1.044-2.46-1.044-2.336 0-4.475 2.052-4.475 4.69 0 2.636 2.142 4.652 4.476 4.652 1.116 0 2-.496 2.459-1.063h.071v.672c0 1.789-.955 2.743-2.495 2.743-1.256 0-2.037-.902-2.353-1.661l-1.788.743c.511 1.24 1.875 2.762 4.14 2.762 2.406 0 4.442-1.417 4.442-4.867v-8.387h-1.946v.762zm-2.353 6.46c-1.416 0-2.6-1.185-2.6-2.813 0-1.627 1.183-2.848 2.6-2.848 1.416 0 2.495 1.203 2.495 2.848 0 1.646-1.097 2.812-2.495 2.812m26.78-12.173h-4.91v13.73h2.047v-5.2h2.863c2.272 0 4.503-1.646 4.503-4.265 0-2.62-2.233-4.265-4.503-4.265m.053 6.617h-2.916v-4.707h2.916c1.533 0 2.403 1.269 2.403 2.352 0 1.084-.87 2.353-2.403 2.353m12.665-1.972c-1.483 0-3.02.655-3.656 2.1l1.82.76c.388-.76 1.113-1.007 1.873-1.007 1.06 0 2.137.636 2.155 1.765v.142c-.372-.211-1.166-.53-2.137-.53-1.96 0-3.957 1.077-3.957 3.092 0 1.838 1.609 3.02 3.409 3.02 1.379 0 2.137-.617 2.614-1.342h.071v1.06h1.979V33.23c0-2.438-1.818-3.797-4.168-3.797m-.248 7.524c-.673 0-1.609-.335-1.609-1.166 0-1.06 1.166-1.464 2.173-1.464.9 0 1.325.195 1.873.459a2.484 2.484 0 0 1-2.437 2.174m11.623-7.226-2.35 5.954h-.071l-2.438-5.954h-2.208l3.656 8.32-2.084 4.628h2.137l5.635-12.948h-2.279zm-18.459 8.784h2.05V24.79h-2.05z"/><path fill="#E43629" d="m35.683 26.907-11.695 12.41v.007a3.155 3.155 0 0 0 3.05 2.34c.586 0 1.132-.16 1.603-.435l.037-.023 13.163-7.595-6.16-6.707z"/><path fill="#F9BD00" d="m47.512 24.793-.011-.007-5.683-3.294-6.402 5.697 6.425 6.423 5.65-3.262a3.16 3.16 0 0 0 1.665-2.784 3.15 3.15 0 0 0-1.646-2.773"/><path fill="#587DBE" d="M23.989 15.762q-.107.39-.108.812v21.932q0 .423.108.813l12.094-12.094-12.097-11.463z"/><path fill="#30A043" d="m35.768 27.542 6.053-6.051-13.148-7.623a3.163 3.163 0 0 0-4.685 1.891v.003l11.782 11.78z"/><path fill="#fff" d="M58.822 13.157h2.188q1.06 0 1.85.429.788.429 1.214 1.21.426.778.425 1.78t-.425 1.782a3 3 0 0 1-1.214 1.21q-.788.429-1.85.429h-2.188v-6.843zm2.16 5.848q1.167 0 1.811-.645.645-.645.645-1.781 0-1.137-.645-1.781-.644-.645-1.81-.645h-1.11v4.854h1.11zm4.881-5.849h1.052V20h-1.052zm3.249 6.498q-.678-.496-.946-1.395l.994-.402c.1.381.285.695.544.936q.392.364.946.363.516 0 .874-.268a.87.87 0 0 0 .358-.737.92.92 0 0 0-.314-.712q-.317-.283-1.09-.548l-.43-.154a3.2 3.2 0 0 1-1.161-.693q-.465-.444-.464-1.18 0-.507.273-.937a1.9 1.9 0 0 1 .765-.68Q69.954 13 70.574 13q.888 0 1.423.434.535.433.725.98l-.945.402a1.15 1.15 0 0 0-.402-.593q-.305-.248-.794-.248c-.326 0-.576.083-.794.248a.76.76 0 0 0-.324.632.72.72 0 0 0 .291.587q.293.235.902.445l.441.154q.878.307 1.357.794.478.488.477 1.3.001.668-.34 1.122a2.05 2.05 0 0 1-.87.675q-.53.22-1.085.22a2.53 2.53 0 0 1-1.529-.495zm5.198-6.498h2.35q.615 0 1.123.269.51.268.813.746.3.48.3 1.079c0 .399-.1.762-.3 1.078-.202.32-.47.567-.813.746q-.513.27-1.122.269h-1.3v2.656h-1.05zm2.38 3.19q.527 0 .845-.33.32-.329.32-.769 0-.439-.32-.769t-.844-.33h-1.33v2.196h1.33zm4.835 3.326a3.47 3.47 0 0 1-1.276-1.294 3.6 3.6 0 0 1-.464-1.802q0-.984.464-1.802a3.49 3.49 0 0 1 3.083-1.772q.993 0 1.801.477.806.48 1.272 1.295.465.816.464 1.802 0 .983-.464 1.802a3.48 3.48 0 0 1-3.073 1.772 3.5 3.5 0 0 1-1.807-.478m3.062-.844q.57-.33.897-.919.33-.587.331-1.333 0-.746-.33-1.334a2.4 2.4 0 0 0-.898-.918 2.46 2.46 0 0 0-1.255-.33q-.686 0-1.256.33a2.4 2.4 0 0 0-.897.918q-.33.588-.331 1.334 0 .745.33 1.333t.898.919q.57.33 1.256.33.685 0 1.255-.33m3.636-5.672h1.242l3.096 5.027h.057l-.057-1.32v-3.707h1.042V20h-1.09l-3.248-5.284h-.058l.058 1.32V20h-1.042zm7.111.001h1.051V20h-1.051zm2.77 0h2.562q.543 0 1.012.239.469.237.741.654.274.416.274.923 0 .505-.253.883c-.17.253-.392.446-.675.579v.048q.535.182.852.602.314.42.314.993c0 .384-.096.71-.291.999q-.292.434-.783.68a2.4 2.4 0 0 1-1.074.243h-2.677v-6.843zm2.514 2.876q.478 0 .764-.291a.94.94 0 0 0 .287-.673.9.9 0 0 0-.282-.663q-.282-.282-.733-.282h-1.501v1.912h1.462zm.163 2.991q.495 0 .798-.3.3-.3.301-.721a.98.98 0 0 0-.31-.726q-.31-.306-.826-.305h-1.587v2.054h1.626zm3.535-5.867h1.051v5.849h2.942V20h-3.993zm5.102 0h4.148v.994h-3.097v1.93h2.791v.994h-2.791v1.93h3.097V20h-4.148zm8.151 6.498q-.678-.496-.946-1.395l.994-.402q.154.573.544.936.392.364.946.363.516 0 .874-.268a.87.87 0 0 0 .358-.737.92.92 0 0 0-.314-.712q-.316-.283-1.09-.548l-.43-.154a3.2 3.2 0 0 1-1.161-.693q-.465-.444-.464-1.18 0-.507.273-.937a1.9 1.9 0 0 1 .765-.68q.493-.247 1.113-.247.888 0 1.423.434.535.433.725.98l-.945.402a1.15 1.15 0 0 0-.402-.593q-.305-.248-.794-.248c-.326 0-.576.083-.794.248a.77.77 0 0 0-.326.632.72.72 0 0 0 .291.587q.293.235.902.445l.439.154q.877.307 1.356.794.478.488.478 1.3 0 .668-.34 1.122a2.05 2.05 0 0 1-.87.675q-.53.22-1.086.22a2.52 2.52 0 0 1-1.528-.495zm6.272.152a2.3 2.3 0 0 1-.909-.975q-.32-.632-.319-1.462v-4.215h1.042v4.272q0 .775.402 1.25.402.479 1.136.478c.489 0 .879-.158 1.148-.477q.402-.48.401-1.251v-4.272h1.042v4.215q0 .822-.314 1.453-.316.629-.898.98-.582.348-1.377.349c-.53 0-.959-.115-1.352-.345zm5.577-6.65h2.399q.62 0 1.122.269.502.268.794.746.292.48.292 1.079-.001.689-.446 1.218-.445.53-1.113.712l-.009.048 1.882 2.713V20h-1.214l-1.825-2.686h-.831V20h-1.051zm2.369 3.19q.496 0 .835-.314.339-.315.34-.794 0-.44-.31-.769-.31-.33-.826-.33h-1.357v2.208h1.32z"/></svg>
